; generated by Slic3r 1.2.9 on 2017-09-09 at 02:01:06

; external perimeters extrusion width = 0.40mm
; perimeters extrusion width = 0.68mm
; infill extrusion width = 0.87mm
; solid infill extrusion width = 0.68mm
; top infill extrusion width = 0.68mm
; support material extrusion width = 0.40mm

M107
;<Start G-code>
M220 S100                             ; reset print speed modifier %
M190 S65   ; wait for bed temp
M106 S0                             ; fan speed
M104 S220       ; set extruder temp
G28                                   ; home all axes
                                      ; BEGIN optional (if X0 or Y0 is not on build surface)
G0 Z3                                 ; lift head
G0 X13 F3600                          ; move head to bed corner
G0 Z0 F3600                           ; lower head
G92 X Y Z E                           ; reset coordinates
G0 Z3                                 ; lift head
G0 X10 Y10 F3600                      ; move head to build surface
G0 Z0                                 ; lower head
                                      ; END optional (if X0 or Y0 is not on build surface)
M109 S220       ; wait for nozzle temp
G0 E15 F100                             ; unpark filament
G0 Z5 F3600                           ; lift head
G91                                   ; use relative coordinates
M107                                  ; disable fan
G0 X20 Y20 Z0 F3600                   ; wipe tip
;</Start G-gcode>
G21 ; set units to millimeters
G90 ; use absolute coordinates
M82 ; use absolute distances for extrusion
G92 E0
G1 E-3.00000 F9960.00000
G92 E0
G1 Z0.100 F9960.000
G1 Z0.150 F9960.000
G1 Z0.250 F9960.000
G1 X54.956 Y129.532 F9960.000
G1 Z0.150 F9960.000
G1 E3.00000 F9960.00000
G1 X54.956 Y70.663 E3.98320 F1200.000
G1 X54.876 Y70.533 E3.98574
G1 X54.595 Y70.393 E3.99098
G1 X54.558 Y70.281 E3.99295
G1 X54.512 Y70.216 E3.99428
G1 X54.281 Y70.037 E3.99916
G1 X54.173 Y69.815 E4.00328
G1 X54.111 Y69.752 E4.00476
G1 X53.797 Y69.594 E4.01063
G1 X53.133 Y67.594 E4.04583
G1 X53.276 Y67.308 E4.05118
G1 X53.284 Y67.201 E4.05296
G1 X53.063 Y66.537 E4.06465
G1 X53.250 Y66.133 E4.07209
G1 X53.250 Y61.855 E4.14353
G1 X53.284 Y61.561 E4.14847
G1 X53.360 Y61.239 E4.15399
G1 X53.461 Y60.961 E4.15894
G1 X54.565 Y58.759 E4.20008
G1 X56.565 Y58.094 E4.23528
G1 X56.836 Y58.214 E4.24023
G1 X57.981 Y58.214 E4.25934
G1 X58.363 Y58.094 E4.26603
G1 X58.634 Y58.214 E4.27098
G1 X59.778 Y58.214 E4.29009
G1 X60.160 Y58.094 E4.29678
G1 X60.431 Y58.214 E4.30172
G1 X61.575 Y58.214 E4.32084
G1 X61.958 Y58.094 E4.32752
G1 X62.160 Y58.183 E4.33121
G1 X63.120 Y58.229 E4.34726
G1 X64.637 Y58.932 E4.37519
G1 X65.262 Y59.620 E4.39071
G1 X65.595 Y59.797 E4.39701
G1 X65.614 Y59.855 E4.39802
G1 X65.754 Y59.956 E4.40091
G1 X134.758 Y59.956 E5.55337
G1 X134.888 Y59.876 E5.55591
G1 X135.448 Y58.759 E5.57678
G1 X137.448 Y58.094 E5.61198
G1 X137.719 Y58.214 E5.61693
G1 X143.230 Y58.214 E5.70897
G1 X143.538 Y58.078 E5.71461
G1 X145.443 Y58.450 E5.74702
G1 X146.584 Y59.728 E5.77564
G1 X146.757 Y61.922 E5.81238
G1 X146.750 Y66.888 E5.89532
G1 X146.716 Y67.182 E5.90026
G1 X146.640 Y67.504 E5.90579
G1 X146.539 Y67.782 E5.91073
G1 X145.059 Y70.735 E5.96590
G1 X145.044 Y70.796 E5.96694
G1 X145.044 Y129.414 E6.94595
G1 X145.124 Y129.543 E6.94848
G1 X145.561 Y129.762 E6.95664
G1 X145.624 Y129.843 E6.95836
G1 X145.728 Y129.904 E6.96036
G1 X146.587 Y131.483 E6.99040
G1 X146.744 Y132.078 E7.00068
G1 X146.750 Y137.415 E7.08981
G1 X146.712 Y137.781 E7.09595
G1 X146.908 Y138.767 E7.11274
G1 X145.668 Y141.241 E7.15897
G1 X143.960 Y141.809 E7.18904
G1 X143.867 Y141.867 E7.19086
G1 X143.772 Y141.871 E7.19245
G1 X143.668 Y141.906 E7.19428
G1 X143.531 Y141.850 E7.19675
G1 X142.268 Y141.786 E7.21787
G1 X138.043 Y141.786 E7.28844
G1 X137.850 Y141.820 E7.29171
G1 X136.155 Y141.612 E7.32023
G1 X135.131 Y140.910 E7.34095
G1 X134.975 Y140.632 E7.34628
G1 X134.429 Y140.085 E7.35920
G1 X134.330 Y140.044 E7.36098
G1 X65.475 Y140.044 E8.51095
G1 X65.346 Y140.124 E8.51349
G1 X64.952 Y140.909 E8.52816
G1 X63.848 Y141.276 E8.54760
G1 X63.328 Y141.593 E8.55776
G1 X62.647 Y141.786 E8.56959
G1 X56.289 Y141.786 E8.67577
G1 X55.519 Y141.803 E8.68863
G1 X54.292 Y141.098 E8.71226
G1 X53.420 Y139.531 E8.74222
G1 X53.258 Y138.931 E8.75260
G1 X53.243 Y138.235 E8.76422
G1 X53.250 Y133.578 E8.84200
G1 X53.322 Y133.126 E8.84965
G1 X53.318 Y133.051 E8.85090
G1 X53.063 Y132.283 E8.86441
G1 X54.275 Y129.865 E8.90959
G1 X54.855 Y129.672 E8.91978
G1 X54.921 Y129.581 E8.92167
G1 X55.224 Y129.725 F9960.000
G1 X55.224 Y70.497 E9.91086 F1200.000
G1 X55.144 Y70.368 E9.91340
G1 X54.815 Y70.203 E9.91955
G1 X54.741 Y70.054 E9.92232
G1 X54.495 Y69.864 E9.92752
G1 X54.374 Y69.616 E9.93212
G1 X54.312 Y69.553 E9.93359
G1 X54.016 Y69.405 E9.93912
G1 X53.422 Y67.615 E9.97062
G1 X53.565 Y67.328 E9.97597
G1 X53.573 Y67.222 E9.97775
G1 X53.352 Y66.558 E9.98944
G1 X53.518 Y66.196 E9.99609
G1 X53.518 Y61.871 E10.06832
G1 X53.548 Y61.608 E10.07275
G1 X53.617 Y61.316 E10.07775
G1 X53.708 Y61.067 E10.08217
G1 X54.755 Y58.978 E10.12121
G1 X56.545 Y58.383 E10.15270
G1 X56.773 Y58.482 E10.15686
G1 X58.024 Y58.482 E10.17775
G1 X58.342 Y58.383 E10.18331
G1 X58.570 Y58.482 E10.18746
G1 X59.821 Y58.482 E10.20836
G1 X60.139 Y58.383 E10.21391
G1 X60.368 Y58.482 E10.21807
G1 X61.619 Y58.482 E10.23896
G1 X61.937 Y58.383 E10.24452
G1 X62.090 Y58.447 E10.24730
G1 X63.054 Y58.494 E10.26342
G1 X64.475 Y59.152 E10.28957
G1 X65.097 Y59.837 E10.30502
G1 X65.375 Y59.987 E10.31030
G1 X65.420 Y60.122 E10.31268
G1 X65.561 Y60.224 E10.31557
G1 X134.924 Y60.224 E11.47403
G1 X135.053 Y60.144 E11.47657
G1 X135.637 Y58.978 E11.49835
G1 X137.427 Y58.383 E11.52984
G1 X137.655 Y58.482 E11.53400
G1 X143.292 Y58.482 E11.62814
G1 X143.575 Y58.358 E11.63330
G1 X145.304 Y58.696 E11.66271
G1 X146.324 Y59.839 E11.68831
G1 X146.489 Y61.924 E11.72324
G1 X146.475 Y62.161 E11.72719
G1 X146.482 Y66.872 E11.80588
G1 X146.452 Y67.135 E11.81030
G1 X146.383 Y67.427 E11.81531
G1 X146.292 Y67.676 E11.81973
G1 X144.791 Y70.671 E11.87570
G1 X144.776 Y70.732 E11.87674
G1 X144.776 Y129.579 E12.85956
G1 X144.856 Y129.709 E12.86210
G1 X145.345 Y129.954 E12.87123
G1 X145.402 Y130.023 E12.87274
G1 X145.528 Y130.097 E12.87518
G1 X146.337 Y131.583 E12.90343
G1 X146.477 Y132.115 E12.91263
G1 X146.482 Y137.400 E13.00088
G1 X146.438 Y137.776 E13.00721
G1 X146.628 Y138.729 E13.02344
G1 X145.479 Y141.022 E13.06628
G1 X143.689 Y141.617 E13.09777
G1 X143.601 Y141.585 E13.09934
G1 X142.275 Y141.518 E13.12151
G1 X138.018 Y141.518 E13.19260
G1 X137.842 Y141.549 E13.19559
G1 X136.252 Y141.354 E13.22234
G1 X135.337 Y140.726 E13.24088
G1 X135.193 Y140.470 E13.24578
G1 X134.540 Y139.817 E13.26121
G1 X134.441 Y139.776 E13.26299
G1 X65.310 Y139.776 E14.41758
G1 X65.180 Y139.856 E14.42011
G1 X64.763 Y140.690 E14.43569
G1 X63.734 Y141.032 E14.45380
G1 X63.219 Y141.345 E14.46386
G1 X62.610 Y141.518 E14.47444
G1 X56.287 Y141.518 E14.58005
G1 X55.588 Y141.533 E14.59172
G1 X54.490 Y140.903 E14.61286
G1 X53.670 Y139.429 E14.64103
G1 X53.525 Y138.892 E14.65031
G1 X53.511 Y138.262 E14.66084
G1 X53.518 Y133.594 E14.73881
G1 X53.548 Y133.331 E14.74323
G1 X53.600 Y133.113 E14.74697
G1 X53.596 Y133.039 E14.74821
G1 X53.352 Y132.304 E14.76114
G1 X54.465 Y130.084 E14.80261
G1 X55.122 Y129.866 E14.81418
G1 X55.189 Y129.774 E14.81607
G1 X55.491 Y129.876 F9960.000
G1 X55.491 Y70.367 E15.80996 F1200.000
G1 X55.437 Y70.255 E15.81203
G1 X55.279 Y70.136 E15.81534
G1 X55.034 Y70.013 E15.81992
G1 X54.969 Y69.893 E15.82220
G1 X54.708 Y69.690 E15.82771
G1 X54.576 Y69.417 E15.83279
G1 X54.514 Y69.354 E15.83426
G1 X54.235 Y69.215 E15.83946
G1 X53.711 Y67.636 E15.86725
G1 X53.854 Y67.349 E15.87260
G1 X53.862 Y67.243 E15.87438
G1 X53.641 Y66.579 E15.88607
G1 X53.785 Y66.259 E15.89192
G1 X53.785 Y64.277 E15.92503
G1 X53.804 Y64.122 E15.92764
G1 X53.785 Y64.058 E15.92875
G1 X53.785 Y61.886 E15.96501
G1 X53.813 Y61.654 E15.96892
G1 X53.874 Y61.393 E15.97340
G1 X53.954 Y61.174 E15.97730
G1 X54.945 Y59.197 E16.01422
G1 X56.524 Y58.673 E16.04201
G1 X56.666 Y58.744 E16.04467
G1 X56.766 Y58.753 E16.04635
G1 X58.067 Y58.750 E16.06808
G1 X58.321 Y58.673 E16.07251
G1 X58.463 Y58.744 E16.07517
G1 X58.563 Y58.753 E16.07685
G1 X59.865 Y58.750 E16.09858
G1 X60.118 Y58.673 E16.10301
G1 X60.261 Y58.744 E16.10567
G1 X60.361 Y58.753 E16.10735
G1 X61.662 Y58.750 E16.12908
G1 X61.916 Y58.673 E16.13351
G1 X62.040 Y58.735 E16.13583
G1 X62.149 Y58.742 E16.13765
G1 X62.207 Y58.721 E16.13869
G1 X62.989 Y58.759 E16.15176
G1 X64.314 Y59.372 E16.17613
G1 X64.934 Y60.065 E16.19167
G1 X65.156 Y60.177 E16.19582
G1 X65.227 Y60.390 E16.19958
G1 X65.367 Y60.491 E16.20247
G1 X135.089 Y60.491 E17.36691
G1 X135.218 Y60.412 E17.36945
G1 X135.827 Y59.197 E17.39214
G1 X137.406 Y58.673 E17.41993
G1 X137.548 Y58.744 E17.42258
G1 X137.648 Y58.753 E17.42426
G1 X143.354 Y58.750 E17.51956
G1 X143.613 Y58.638 E17.52426
G1 X145.164 Y58.941 E17.55065
G1 X146.064 Y59.950 E17.57324
G1 X146.220 Y61.927 E17.60636
G1 X146.202 Y62.247 E17.61171
G1 X146.215 Y64.466 E17.64877
G1 X146.196 Y64.621 E17.65138
G1 X146.215 Y64.685 E17.65249
G1 X146.215 Y66.857 E17.68875
G1 X146.187 Y67.089 E17.69266
G1 X146.126 Y67.350 E17.69714
G1 X146.046 Y67.569 E17.70104
G1 X144.612 Y70.430 E17.75448
G1 X144.509 Y70.571 E17.75740
G1 X144.509 Y129.730 E18.74545
G1 X144.580 Y129.854 E18.74783
G1 X145.133 Y130.147 E18.75829
G1 X145.179 Y130.204 E18.75951
G1 X145.329 Y130.291 E18.76240
G1 X146.086 Y131.682 E18.78886
G1 X146.210 Y132.152 E18.79697
G1 X146.215 Y134.993 E18.84442
G1 X146.196 Y135.149 E18.84703
G1 X146.215 Y135.213 E18.84814
G1 X146.215 Y137.384 E18.88441
G1 X146.163 Y137.771 E18.89093
G1 X146.347 Y138.691 E18.90660
G1 X145.289 Y140.803 E18.94605
G1 X143.707 Y141.330 E18.97390
G1 X142.282 Y141.250 E18.99774
G1 X137.993 Y141.250 E19.06936
G1 X137.833 Y141.278 E19.07207
G1 X136.350 Y141.096 E19.09703
G1 X135.542 Y140.542 E19.11339
G1 X135.410 Y140.309 E19.11786
G1 X134.651 Y139.549 E19.13581
G1 X134.552 Y139.509 E19.13758
G1 X65.145 Y139.509 E20.29679
G1 X65.015 Y139.588 E20.29933
G1 X64.573 Y140.471 E20.31581
G1 X63.619 Y140.788 E20.33259
G1 X63.110 Y141.098 E20.34255
G1 X62.572 Y141.250 E20.35189
G1 X55.657 Y141.264 E20.46739
G1 X54.688 Y140.708 E20.48604
G1 X53.920 Y139.327 E20.51243
G1 X53.792 Y138.854 E20.52062
G1 X53.785 Y136.000 E20.56828
G1 X53.804 Y135.845 E20.57089
G1 X53.785 Y135.781 E20.57200
G1 X53.785 Y133.609 E20.60827
G1 X53.813 Y133.377 E20.61217
G1 X53.878 Y133.101 E20.61691
G1 X53.875 Y133.026 E20.61816
G1 X53.641 Y132.325 E20.63051
G1 X54.655 Y130.303 E20.66827
G1 X55.319 Y130.083 E20.67996
G1 X55.399 Y130.013 E20.68174
G1 X55.456 Y129.925 E20.68349
G1 X55.759 Y130.069 F9960.000
G1 X55.759 Y70.178 E21.68376 F1200.000
G1 X55.638 Y70.030 E21.68695
G1 X55.564 Y70.015 E21.68822
G1 X55.422 Y69.908 E21.69118
G1 X55.253 Y69.823 E21.69434
G1 X55.198 Y69.731 E21.69614
G1 X54.922 Y69.517 E21.70197
G1 X54.777 Y69.218 E21.70752
G1 X54.715 Y69.156 E21.70899
G1 X54.455 Y69.025 E21.71385
G1 X54.000 Y67.657 E21.73794
G1 X54.144 Y67.370 E21.74329
G1 X54.151 Y67.264 E21.74507
G1 X53.931 Y66.600 E21.75676
G1 X54.053 Y66.323 E21.76181
G1 X54.053 Y64.293 E21.79572
G1 X54.082 Y64.043 E21.79993
G1 X54.053 Y63.940 E21.80171
G1 X54.053 Y61.902 E21.83574
G1 X54.077 Y61.701 E21.83913
G1 X54.131 Y61.470 E21.84309
G1 X54.200 Y61.280 E21.84647
G1 X55.134 Y59.416 E21.88128
G1 X56.503 Y58.962 E21.90537
G1 X56.639 Y59.030 E21.90791
G1 X56.739 Y59.039 E21.90958
G1 X56.816 Y59.017 E21.91092
G1 X58.111 Y59.017 E21.93254
G1 X58.300 Y58.962 E21.93585
G1 X58.436 Y59.030 E21.93839
G1 X58.536 Y59.039 E21.94006
G1 X58.613 Y59.017 E21.94140
G1 X59.908 Y59.017 E21.96303
G1 X60.098 Y58.962 E21.96633
G1 X60.234 Y59.030 E21.96887
G1 X60.334 Y59.039 E21.97055
G1 X60.411 Y59.017 E21.97188
G1 X61.705 Y59.017 E21.99351
G1 X61.895 Y58.962 E21.99681
G1 X62.022 Y59.025 E21.99917
G1 X62.130 Y59.032 E22.00099
G1 X62.247 Y58.991 E22.00305
G1 X62.924 Y59.024 E22.01438
G1 X64.152 Y59.593 E22.03697
G1 X64.626 Y60.116 E22.04877
G1 X64.648 Y60.178 E22.04987
G1 X64.717 Y60.256 E22.05161
G1 X64.937 Y60.366 E22.05572
G1 X65.034 Y60.658 E22.06085
G1 X65.174 Y60.759 E22.06374
G1 X135.254 Y60.759 E23.23417
G1 X135.384 Y60.679 E23.23671
G1 X136.017 Y59.416 E23.26031
G1 X137.385 Y58.962 E23.28439
G1 X137.521 Y59.030 E23.28693
G1 X137.621 Y59.039 E23.28861
G1 X137.698 Y59.017 E23.28995
G1 X143.417 Y59.017 E23.38545
G1 X143.650 Y58.918 E23.38968
G1 X145.024 Y59.187 E23.41307
G1 X145.804 Y60.061 E23.43264
G1 X145.952 Y61.930 E23.46395
G1 X145.914 Y62.292 E23.47002
G1 X145.947 Y62.412 E23.47211
G1 X145.947 Y64.450 E23.50615
G1 X145.918 Y64.700 E23.51035
G1 X145.947 Y64.803 E23.51213
G1 X145.947 Y66.841 E23.54617
G1 X145.923 Y67.042 E23.54955
G1 X145.869 Y67.273 E23.55352
G1 X145.800 Y67.463 E23.55690
G1 X144.423 Y70.211 E23.60822
G1 X144.342 Y70.237 E23.60964
G1 X144.241 Y70.378 E23.61253
G1 X144.241 Y129.884 E24.60637
G1 X144.312 Y130.008 E24.60876
G1 X144.922 Y130.340 E24.62035
G1 X144.957 Y130.384 E24.62129
G1 X145.129 Y130.485 E24.62462
G1 X145.835 Y131.782 E24.64929
G1 X145.942 Y132.189 E24.65632
G1 X145.951 Y132.684 E24.66458
G1 X145.919 Y132.821 E24.66693
G1 X145.947 Y132.940 E24.66897
G1 X145.947 Y134.978 E24.70300
G1 X145.918 Y135.228 E24.70721
G1 X145.947 Y135.331 E24.70899
G1 X145.947 Y137.369 E24.74303
G1 X145.889 Y137.766 E24.74974
G1 X146.067 Y138.654 E24.76485
G1 X145.099 Y140.584 E24.80091
G1 X143.686 Y141.053 E24.82578
G1 X142.378 Y140.983 E24.84766
G1 X137.968 Y140.983 E24.92130
G1 X137.825 Y141.007 E24.92374
G1 X136.447 Y140.838 E24.94692
G1 X135.747 Y140.358 E24.96109
G1 X135.628 Y140.148 E24.96514
G1 X134.762 Y139.282 E24.98559
G1 X134.663 Y139.241 E24.98737
G1 X64.979 Y139.241 E26.15119
G1 X64.850 Y139.321 E26.15373
G1 X64.383 Y140.252 E26.17112
G1 X63.505 Y140.543 E26.18657
G1 X63.001 Y140.850 E26.19643
G1 X62.535 Y140.983 E26.20452
G1 X55.725 Y140.994 E26.31825
G1 X54.886 Y140.513 E26.33442
G1 X54.170 Y139.226 E26.35901
G1 X54.059 Y138.815 E26.36611
G1 X54.048 Y138.316 E26.37445
G1 X54.081 Y138.173 E26.37691
G1 X54.053 Y138.054 E26.37895
G1 X54.053 Y136.016 E26.41299
G1 X54.082 Y135.766 E26.41719
G1 X54.053 Y135.663 E26.41897
G1 X54.053 Y133.625 E26.45301
G1 X54.077 Y133.424 E26.45639
G1 X54.157 Y133.122 E26.46161
G1 X54.158 Y133.031 E26.46312
G1 X53.931 Y132.346 E26.47519
G1 X54.844 Y130.522 E26.50925
G1 X55.509 Y130.302 E26.52094
G1 X55.588 Y130.233 E26.52270
G1 X55.658 Y130.210 E26.52393
G1 X55.724 Y130.118 E26.52582
G1 X56.027 Y130.263 F9960.000
G1 X56.027 Y70.001 E27.53226 F1200.000
G1 X55.947 Y69.872 E27.53480
G1 X55.788 Y69.792 E27.53777
G1 X55.679 Y69.765 E27.53966
G1 X55.472 Y69.634 E27.54375
G1 X55.426 Y69.569 E27.54507
G1 X55.135 Y69.344 E27.55121
G1 X54.978 Y69.020 E27.55723
G1 X54.916 Y68.957 E27.55870
G1 X54.674 Y68.835 E27.56323
G1 X54.289 Y67.678 E27.58361
G1 X54.433 Y67.391 E27.58896
G1 X54.440 Y67.285 E27.59074
G1 X54.220 Y66.621 E27.60243
G1 X54.335 Y66.390 E27.60673
G1 X54.321 Y66.254 E27.60901
G1 X54.321 Y64.308 E27.64151
G1 X54.374 Y64.000 E27.64674
G1 X54.347 Y63.880 E27.64879
G1 X54.321 Y63.847 E27.64949
G1 X54.321 Y61.918 E27.68171
G1 X54.341 Y61.747 E27.68458
G1 X54.447 Y61.386 E27.69087
G1 X55.324 Y59.636 E27.72357
G1 X56.482 Y59.251 E27.74395
G1 X56.612 Y59.316 E27.74637
G1 X56.712 Y59.325 E27.74805
G1 X56.853 Y59.285 E27.75050
G1 X58.154 Y59.285 E27.77223
G1 X58.279 Y59.251 E27.77440
G1 X58.409 Y59.316 E27.77683
G1 X58.509 Y59.325 E27.77850
G1 X58.651 Y59.285 E27.78096
G1 X59.951 Y59.285 E27.80268
G1 X60.077 Y59.251 E27.80485
G1 X60.207 Y59.316 E27.80728
G1 X60.307 Y59.325 E27.80896
G1 X60.448 Y59.285 E27.81141
G1 X61.749 Y59.285 E27.83314
G1 X61.874 Y59.251 E27.83531
G1 X62.003 Y59.315 E27.83771
G1 X62.111 Y59.322 E27.83953
G1 X62.286 Y59.261 E27.84261
G1 X62.859 Y59.289 E27.85220
G1 X63.990 Y59.813 E27.87301
G1 X64.392 Y60.256 E27.88300
G1 X64.431 Y60.369 E27.88500
G1 X64.500 Y60.447 E27.88674
G1 X64.718 Y60.556 E27.89081
G1 X64.841 Y60.926 E27.89731
G1 X64.981 Y61.027 E27.90020
G1 X135.420 Y61.027 E29.07663
G1 X135.549 Y60.947 E29.07917
