; generated by Slic3r 1.2.9 on 2017-09-23 at 01:56:28

; external perimeters extrusion width = 0.40mm
; perimeters extrusion width = 0.68mm
; infill extrusion width = 0.87mm
; solid infill extrusion width = 0.68mm
; top infill extrusion width = 0.68mm
; support material extrusion width = 0.40mm

M107
;<Start G-code>
M220 S100                             ; reset print speed modifier %
M190 S65   ; wait for bed temp
M106 S0                             ; fan speed
M104 S220       ; set extruder temp
G28                                   ; home all axes
                                      ; BEGIN optional (if X0 or Y0 is not on build surface)
G0 Z3                                 ; lift head
G0 X13 F3600                          ; move head to bed corner
G0 Z0 F3600                           ; lower head
G92 X Y Z E                           ; reset coordinates
G0 Z3                                 ; lift head
G0 X10 Y10 F3600                      ; move head to build surface
G0 Z0                                 ; lower head
                                      ; END optional (if X0 or Y0 is not on build surface)
M109 S220       ; wait for nozzle temp
G0 E15 F100                             ; unpark filament
G0 Z5 F3600                           ; lift head
G91                                   ; use relative coordinates
M107                                  ; disable fan
G0 X20 Y20 Z0 F3600                   ; wipe tip
;</Start G-gcode>
G21 ; set units to millimeters
G90 ; use absolute coordinates
M82 ; use absolute distances for extrusion
G92 E0
G1 E-3.00000 F9960.00000
G92 E0
G1 Z0.100 F9960.000
G1 Z0.150 F9960.000
G1 Z0.250 F9960.000
G1 X70.206 Y118.805 F9960.000
G1 Z0.150 F9960.000
G1 E3.00000 F9960.00000
G1 X70.206 Y109.676 E3.15247 F1200.000
G1 X70.165 Y109.578 E3.15425
G1 X69.340 Y108.753 E3.17373
G1 X69.271 Y108.618 E3.17626
G1 X69.211 Y108.558 E3.17769
G1 X68.978 Y108.441 E3.18204
G1 X68.313 Y106.441 E3.21724
G1 X68.500 Y106.037 E3.22468
G1 X68.500 Y101.759 E3.29612
G1 X68.572 Y101.307 E3.30377
G1 X68.568 Y101.232 E3.30501
G1 X68.313 Y100.464 E3.31853
G1 X69.371 Y98.353 E3.35797
G1 X69.850 Y97.830 E3.36982
G1 X69.887 Y97.736 E3.37150
G1 X69.887 Y33.440 E4.44534
G1 X71.377 Y31.949 E4.48054
G1 X151.485 Y31.949 E5.81844
G1 X152.975 Y33.440 E5.85364
G1 X152.975 Y97.328 E6.92067
G1 X153.049 Y97.454 E6.92310
G1 X153.732 Y97.835 E6.93617
G1 X153.903 Y97.880 E6.93912
G1 X155.000 Y99.268 E6.96866
G1 X155.000 Y106.414 E7.08801
G1 X154.966 Y106.707 E7.09295
G1 X154.890 Y107.029 E7.09847
G1 X154.789 Y107.307 E7.10341
G1 X153.309 Y110.261 E7.15858
G1 X153.294 Y110.321 E7.15963
G1 X153.294 Y156.826 E7.93631
G1 X153.346 Y156.935 E7.93833
G1 X154.126 Y157.566 E7.95509
G1 X154.582 Y158.307 E7.96962
G1 X154.661 Y158.608 E7.97481
G1 X155.000 Y159.037 E7.98395
G1 X155.000 Y166.183 E8.10329
G1 X154.966 Y166.477 E8.10823
G1 X154.890 Y166.799 E8.11375
G1 X154.789 Y167.077 E8.11869
G1 X153.701 Y169.248 E8.15926
G1 X151.700 Y169.912 E8.19446
G1 X151.429 Y169.793 E8.19940
G1 X146.606 Y169.793 E8.27997
G1 X146.118 Y169.826 E8.28813
G1 X144.499 Y169.369 E8.31623
G1 X143.640 Y168.622 E8.33523
G1 X143.586 Y168.499 E8.33749
G1 X143.521 Y168.431 E8.33905
G1 X143.232 Y168.286 E8.34446
G1 X143.187 Y168.152 E8.34681
G1 X143.047 Y168.051 E8.34970
G1 X81.296 Y168.051 E9.38103
G1 X81.167 Y168.131 E9.38357
G1 X80.739 Y168.985 E9.39953
G1 X79.467 Y169.408 E9.42191
G1 X79.149 Y169.599 E9.42811
G1 X78.468 Y169.793 E9.43993
G1 X70.736 Y169.793 E9.56907
G1 X69.580 Y169.148 E9.59117
G1 X69.032 Y168.260 E9.60859
G1 X68.978 Y168.211 E9.60982
G1 X68.942 Y168.115 E9.61153
G1 X68.797 Y167.880 E9.61615
G1 X68.789 Y167.699 E9.61916
G1 X68.634 Y167.551 E9.62275
G1 X48.196 Y167.551 E9.96408
G1 X46.706 Y166.060 E9.99929
G1 X46.706 Y153.953 E10.20150
G1 X48.196 Y152.462 E10.23670
G1 X55.304 Y152.462 E10.35541
G1 X56.794 Y153.953 E10.39061
G1 X56.794 Y157.305 E10.44661
G1 X56.951 Y157.462 E10.45031
G1 X65.349 Y157.462 E10.59057
G1 X65.506 Y157.305 E10.59427
G1 X65.506 Y129.208 E11.06354
G1 X65.349 Y129.051 E11.06725
G1 X56.951 Y129.051 E11.20751
G1 X56.794 Y129.208 E11.21121
G1 X56.794 Y132.560 E11.26721
G1 X55.304 Y134.051 E11.30241
G1 X48.196 Y134.051 E11.42112
G1 X46.706 Y132.560 E11.45632
G1 X46.706 Y120.453 E11.65853
G1 X48.196 Y118.962 E11.69373
G1 X70.049 Y118.962 E12.05870
G1 X70.163 Y118.848 E12.06141
G1 X70.474 Y119.073 F9960.000
G1 X70.474 Y109.565 E12.22020 F1200.000
G1 X70.433 Y109.467 E12.22198
G1 X69.559 Y108.593 E12.24261
G1 X69.470 Y108.418 E12.24590
G1 X69.409 Y108.358 E12.24733
G1 X69.197 Y108.252 E12.25129
G1 X68.602 Y106.462 E12.28279
G1 X68.768 Y106.100 E12.28943
G1 X68.768 Y101.775 E12.36167
G1 X68.798 Y101.512 E12.36609
G1 X68.850 Y101.294 E12.36982
G1 X68.846 Y101.220 E12.37107
G1 X68.602 Y100.485 E12.38400
G1 X69.594 Y98.506 E12.42097
G1 X70.022 Y98.039 E12.43155
G1 X70.087 Y97.999 E12.43282
G1 X70.154 Y97.877 E12.43515
G1 X70.154 Y33.551 E13.50949
G1 X71.488 Y32.217 E13.54099
G1 X151.374 Y32.217 E14.87519
G1 X152.707 Y33.551 E14.90668
G1 X152.707 Y97.485 E15.97448
G1 X152.781 Y97.611 E15.97691
G1 X153.634 Y98.087 E15.99323
G1 X153.750 Y98.120 E15.99525
G1 X154.732 Y99.361 E16.02168
G1 X154.732 Y106.398 E16.13921
G1 X154.702 Y106.661 E16.14363
G1 X154.633 Y106.953 E16.14864
G1 X154.542 Y107.201 E16.15306
G1 X153.041 Y110.197 E16.20903
G1 X153.026 Y110.258 E16.21007
G1 X153.026 Y156.953 E16.98994
G1 X153.079 Y157.063 E16.99197
G1 X153.922 Y157.746 E17.01009
G1 X154.330 Y158.409 E17.02309
G1 X154.412 Y158.726 E17.02856
G1 X154.732 Y159.130 E17.03718
G1 X154.732 Y166.167 E17.15470
G1 X154.702 Y166.430 E17.15912
G1 X154.633 Y166.722 E17.16413
G1 X154.542 Y166.970 E17.16855
G1 X153.511 Y169.029 E17.20700
G1 X151.721 Y169.623 E17.23849
G1 X151.493 Y169.525 E17.24265
G1 X146.596 Y169.525 E17.32442
G1 X146.146 Y169.556 E17.33196
G1 X144.629 Y169.127 E17.35829
G1 X143.861 Y168.459 E17.37529
G1 X143.792 Y168.302 E17.37816
G1 X143.727 Y168.235 E17.37972
G1 X143.451 Y168.096 E17.38488
G1 X143.381 Y167.884 E17.38861
G1 X143.240 Y167.783 E17.39150
G1 X81.131 Y167.783 E18.42881
G1 X81.001 Y167.863 E18.43135
G1 X80.549 Y168.766 E18.44822
G1 X79.352 Y169.163 E18.46927
G1 X79.040 Y169.352 E18.47537
G1 X78.431 Y169.525 E18.48595
G1 X70.805 Y169.525 E18.61330
G1 X69.771 Y168.948 E18.63308
G1 X69.061 Y167.798 E18.65565
G1 X69.053 Y167.603 E18.65891
G1 X68.985 Y167.384 E18.66273
G1 X68.845 Y167.283 E18.66562
G1 X48.307 Y167.283 E19.00863
G1 X46.974 Y165.949 E19.04013
G1 X46.974 Y154.064 E19.23864
G1 X48.307 Y152.730 E19.27013
G1 X55.193 Y152.730 E19.38514
G1 X56.526 Y154.064 E19.41663
G1 X56.526 Y157.573 E19.47525
G1 X56.683 Y157.730 E19.47895
G1 X65.617 Y157.730 E19.62816
G1 X65.774 Y157.573 E19.63186
G1 X65.774 Y128.940 E20.11008
G1 X65.617 Y128.783 E20.11378
G1 X56.683 Y128.783 E20.26299
G1 X56.526 Y128.940 E20.26669
G1 X56.526 Y132.449 E20.32531
G1 X55.193 Y133.783 E20.35680
G1 X48.307 Y133.783 E20.47180
G1 X46.974 Y132.449 E20.50330
G1 X46.974 Y120.564 E20.70181
G1 X48.307 Y119.230 E20.73330
G1 X70.317 Y119.230 E21.10090
G1 X70.431 Y119.116 E21.10360
G1 X70.741 Y119.341 F9960.000
G1 X70.741 Y109.454 E21.26872 F1200.000
G1 X70.701 Y109.356 E21.27050
G1 X69.779 Y108.434 E21.29228
G1 X69.668 Y108.218 E21.29633
G1 X69.608 Y108.158 E21.29775
G1 X69.416 Y108.062 E21.30133
G1 X68.891 Y106.483 E21.32912
G1 X69.035 Y106.164 E21.33497
G1 X69.035 Y104.181 E21.36808
G1 X69.054 Y104.026 E21.37069
G1 X69.035 Y103.962 E21.37180
G1 X69.035 Y101.791 E21.40807
G1 X69.062 Y101.559 E21.41197
G1 X69.128 Y101.282 E21.41671
G1 X69.125 Y101.208 E21.41796
G1 X68.891 Y100.506 E21.43030
G1 X69.817 Y98.660 E21.46480
G1 X70.194 Y98.247 E21.47414
G1 X70.354 Y98.148 E21.47728
G1 X70.422 Y98.027 E21.47960
G1 X70.422 Y33.661 E22.55459
G1 X71.599 Y32.485 E22.58238
G1 X151.263 Y32.485 E23.91288
G1 X152.439 Y33.661 E23.94067
G1 X152.439 Y97.643 E25.00924
G1 X152.513 Y97.768 E25.01167
G1 X153.404 Y98.265 E25.02871
G1 X153.495 Y98.334 E25.03061
G1 X153.598 Y98.359 E25.03239
G1 X154.465 Y99.454 E25.05571
G1 X154.465 Y101.601 E25.09157
G1 X154.446 Y101.756 E25.09418
G1 X154.465 Y101.820 E25.09529
G1 X154.465 Y103.992 E25.13156
G1 X154.446 Y104.147 E25.13417
G1 X154.465 Y104.211 E25.13528
G1 X154.465 Y106.382 E25.17154
G1 X154.437 Y106.614 E25.17545
G1 X154.376 Y106.876 E25.17993
G1 X154.296 Y107.095 E25.18383
G1 X152.895 Y109.890 E25.23605
G1 X152.860 Y109.902 E25.23667
G1 X152.759 Y110.042 E25.23956
G1 X152.759 Y157.081 E26.02517
G1 X152.811 Y157.190 E26.02719
G1 X153.718 Y157.925 E26.04668
G1 X154.078 Y158.510 E26.05816
G1 X154.164 Y158.843 E26.06390
G1 X154.465 Y159.223 E26.07200
G1 X154.465 Y161.370 E26.10785
G1 X154.446 Y161.525 E26.11046
G1 X154.465 Y161.589 E26.11157
G1 X154.465 Y163.761 E26.14784
G1 X154.446 Y163.916 E26.15045
G1 X154.465 Y163.980 E26.15156
G1 X154.465 Y166.152 E26.18783
G1 X154.437 Y166.384 E26.19173
G1 X154.376 Y166.645 E26.19621
G1 X154.296 Y166.864 E26.20012
G1 X153.321 Y168.809 E26.23645
G1 X151.742 Y169.334 E26.26424
G1 X151.600 Y169.263 E26.26690
G1 X151.500 Y169.253 E26.26857
G1 X146.587 Y169.257 E26.35063
G1 X146.174 Y169.286 E26.35754
G1 X144.760 Y168.886 E26.38208
G1 X144.082 Y168.297 E26.39709
G1 X143.998 Y168.106 E26.40056
G1 X143.933 Y168.038 E26.40212
G1 X143.670 Y167.906 E26.40704
G1 X143.574 Y167.616 E26.41215
G1 X143.434 Y167.515 E26.41504
G1 X80.965 Y167.515 E27.45834
G1 X80.836 Y167.595 E27.46088
G1 X80.359 Y168.547 E27.47865
G1 X79.238 Y168.919 E27.49838
G1 X78.931 Y169.104 E27.50437
G1 X78.393 Y169.257 E27.51371
G1 X70.875 Y169.257 E27.63928
G1 X69.963 Y168.748 E27.65672
G1 X69.326 Y167.717 E27.67697
G1 X69.312 Y167.517 E27.68031
G1 X69.179 Y167.116 E27.68736
G1 X69.038 Y167.015 E27.69025
G1 X48.418 Y167.015 E28.03464
G1 X47.241 Y165.839 E28.06243
G1 X47.241 Y154.175 E28.25723
G1 X48.418 Y152.998 E28.28502
G1 X55.082 Y152.998 E28.39632
G1 X56.259 Y154.175 E28.42411
G1 X56.259 Y157.841 E28.48535
G1 X56.415 Y157.998 E28.48905
G1 X65.885 Y157.998 E28.64720
G1 X66.041 Y157.841 E28.65090
G1 X66.041 Y128.672 E29.13807
G1 X65.885 Y128.515 E29.14177
G1 X56.415 Y128.515 E29.29992
G1 X56.259 Y128.672 E29.30362
G1 X56.259 Y132.339 E29.36486
G1 X55.082 Y133.515 E29.39265
G1 X48.418 Y133.515 E29.50395
G1 X47.241 Y132.339 E29.53174
G1 X47.241 Y120.675 E29.72654
G1 X48.418 Y119.498 E29.75433
G1 X70.585 Y119.498 E30.12454
G1 X70.699 Y119.384 E30.12725
G1 X71.009 Y119.609 F9960.000
G1 X71.009 Y109.343 E30.29870 F1200.000
G1 X70.968 Y109.245 E30.30048
G1 X69.998 Y108.274 E30.32340
G1 X69.867 Y108.018 E30.32821
G1 X69.806 Y107.958 E30.32964
G1 X69.635 Y107.872 E30.33283
G1 X69.181 Y106.504 E30.35691
G1 X69.303 Y106.227 E30.36197
G1 X69.303 Y104.197 E30.39587
G1 X69.332 Y103.947 E30.40008
G1 X69.303 Y103.844 E30.40186
G1 X69.303 Y101.806 E30.43590
G1 X69.327 Y101.605 E30.43928
G1 X69.407 Y101.303 E30.44450
G1 X69.408 Y101.213 E30.44601
G1 X69.181 Y100.527 E30.45808
G1 X70.040 Y98.813 E30.49010
G1 X70.367 Y98.456 E30.49819
G1 X70.622 Y98.298 E30.50320
G1 X70.690 Y98.176 E30.50553
G1 X70.690 Y33.772 E31.58116
G1 X71.710 Y32.753 E31.60524
G1 X151.152 Y32.753 E32.93203
G1 X152.172 Y33.772 E32.95612
G1 X152.172 Y97.867 E34.02659
G1 X152.328 Y98.024 E34.03029
G1 X152.422 Y98.024 E34.03185
G1 X153.213 Y98.465 E34.04697
G1 X153.239 Y98.507 E34.04780
G1 X153.325 Y98.569 E34.04958
G1 X153.446 Y98.598 E34.05165
G1 X154.197 Y99.547 E34.07187
G1 X154.197 Y101.585 E34.10591
G1 X154.168 Y101.835 E34.11011
G1 X154.197 Y101.938 E34.11189
G1 X154.197 Y103.976 E34.14593
G1 X154.168 Y104.226 E34.15014
G1 X154.197 Y104.329 E34.15192
G1 X154.197 Y106.367 E34.18596
G1 X154.173 Y106.568 E34.18934
G1 X154.119 Y106.799 E34.19330
G1 X154.050 Y106.989 E34.19668
G1 X152.705 Y109.671 E34.24679
G1 X152.592 Y109.709 E34.24878
G1 X152.491 Y109.849 E34.25167
G1 X152.491 Y157.209 E35.04264
G1 X152.543 Y157.318 E35.04466
G1 X153.514 Y158.104 E35.06553
G1 X153.825 Y158.611 E35.07547
G1 X153.915 Y158.960 E35.08148
G1 X154.197 Y159.316 E35.08907
G1 X154.197 Y161.354 E35.12311
G1 X154.168 Y161.605 E35.12731
G1 X154.197 Y161.707 E35.12909
G1 X154.197 Y163.745 E35.16313
G1 X154.168 Y163.995 E35.16734
G1 X154.197 Y164.098 E35.16912
G1 X154.197 Y166.136 E35.20316
G1 X154.173 Y166.337 E35.20654
G1 X154.119 Y166.568 E35.21050
G1 X154.050 Y166.758 E35.21388
G1 X153.131 Y168.590 E35.24811
G1 X151.763 Y169.045 E35.27219
G1 X151.627 Y168.977 E35.27473
G1 X151.527 Y168.967 E35.27641
G1 X151.450 Y168.989 E35.27775
G1 X146.578 Y168.989 E35.35912
G1 X146.202 Y169.015 E35.36541
G1 X144.890 Y168.644 E35.38817
G1 X144.303 Y168.134 E35.40117
G1 X144.204 Y167.910 E35.40526
G1 X144.140 Y167.842 E35.40682
G1 X143.889 Y167.717 E35.41149
G1 X143.767 Y167.349 E35.41797
G1 X143.627 Y167.247 E35.42086
G1 X80.800 Y167.247 E36.47015
G1 X80.671 Y167.327 E36.47269
G1 X80.169 Y168.327 E36.49138
G1 X79.124 Y168.675 E36.50977
G1 X78.822 Y168.857 E36.51566
G1 X78.356 Y168.989 E36.52376
G1 X70.945 Y168.989 E36.64754
G1 X70.154 Y168.548 E36.66266
G1 X69.590 Y167.635 E36.68058
G1 X69.578 Y167.468 E36.68338
G1 X69.372 Y166.849 E36.69428
G1 X69.232 Y166.747 E36.69717
G1 X48.529 Y166.747 E37.04293
G1 X47.509 Y165.728 E37.06702
G1 X47.509 Y154.286 E37.25812
G1 X48.529 Y153.266 E37.28220
G1 X54.971 Y153.266 E37.38979
G1 X55.991 Y154.286 E37.41388
G1 X55.991 Y158.109 E37.47773
G1 X56.148 Y158.266 E37.48144
G1 X66.152 Y158.266 E37.64853
G1 X66.309 Y158.109 E37.65224
G1 X66.309 Y128.404 E38.14835
G1 X66.152 Y128.247 E38.15205
G1 X56.148 Y128.247 E38.31914
G1 X55.991 Y128.404 E38.32285
G1 X55.991 Y132.228 E38.38670
G1 X54.971 Y133.247 E38.41079
G1 X48.529 Y133.247 E38.51838
G1 X47.509 Y132.228 E38.54247
G1 X47.509 Y120.786 E38.73356
G1 X48.529 Y119.766 E38.75765
G1 X70.852 Y119.766 E39.13048
G1 X70.967 Y119.651 E39.13318
G1 X71.277 Y119.877 F9960.000
G1 X71.277 Y109.176 E39.31190 F1200.000
G1 X71.174 Y109.035 E39.31481
G1 X71.120 Y109.017 E39.31577
G1 X70.217 Y108.115 E39.33709
G1 X70.065 Y107.818 E39.34266
G1 X70.005 Y107.758 E39.34409
G1 X69.854 Y107.683 E39.34689
G1 X69.470 Y106.525 E39.36727
G1 X69.585 Y106.294 E39.37157
G1 X69.571 Y106.158 E39.37386
G1 X69.571 Y104.212 E39.40635
G1 X69.624 Y103.904 E39.41158
G1 X69.597 Y103.784 E39.41364
G1 X69.571 Y103.751 E39.41434
G1 X69.571 Y101.822 E39.44656
G1 X69.591 Y101.652 E39.44942
G1 X69.691 Y101.307 E39.45541
G1 X69.692 Y101.216 E39.45692
G1 X69.470 Y100.548 E39.46869
G1 X70.262 Y98.966 E39.49824
G1 X70.539 Y98.664 E39.50508
G1 X70.890 Y98.447 E39.51197
G1 X70.958 Y98.326 E39.51430
G1 X70.958 Y33.883 E40.59057
G1 X71.821 Y33.020 E40.61095
G1 X151.041 Y33.020 E41.93403
G1 X151.904 Y33.883 E41.95441
G1 X151.904 Y98.135 E43.02750
G1 X152.061 Y98.292 E43.03121
G1 X152.352 Y98.292 E43.03608
G1 X153.021 Y98.665 E43.04887
G1 X153.069 Y98.742 E43.05038
G1 X153.155 Y98.804 E43.05216
G1 X153.293 Y98.837 E43.05453
G1 X153.929 Y99.640 E43.07164
G1 X153.929 Y101.570 E43.10386
G1 X153.876 Y101.878 E43.10909
G1 X153.903 Y101.998 E43.11114
G1 X153.929 Y102.031 E43.11185
G1 X153.929 Y103.961 E43.14407
G1 X153.876 Y104.269 E43.14930
G1 X153.903 Y104.389 E43.15135
G1 X153.929 Y104.422 E43.15205
G1 X153.929 Y106.351 E43.18427
G1 X153.909 Y106.521 E43.18713
G1 X153.803 Y106.883 E43.19343
G1 X152.516 Y109.452 E43.24142
G1 X152.324 Y109.516 E43.24479
G1 X152.223 Y109.656 E43.24768
G1 X152.223 Y157.337 E44.04401
G1 X152.275 Y157.446 E44.04603
G1 X153.310 Y158.284 E44.06826
G1 X153.573 Y158.713 E44.07667
G1 X153.666 Y159.078 E44.08296
G1 X153.929 Y159.410 E44.09003
G1 X153.929 Y161.339 E44.12225
G1 X153.876 Y161.648 E44.12748
G1 X153.903 Y161.767 E44.12953
G1 X153.929 Y161.800 E44.13023
G1 X153.929 Y163.730 E44.16246
G1 X153.876 Y164.038 E44.16769
G1 X153.903 Y164.158 E44.16974
G1 X153.929 Y164.191 E44.17044
G1 X153.929 Y166.120 E44.20266
G1 X153.909 Y166.291 E44.20552
G1 X153.803 Y166.652 E44.21182
G1 X152.942 Y168.371 E44.24392
G1 X151.784 Y168.756 E44.26430
G1 X151.654 Y168.691 E44.26673
G1 X151.554 Y168.681 E44.26841
G1 X151.413 Y168.721 E44.27086
G1 X146.568 Y168.721 E44.35177
G1 X146.230 Y168.745 E44.35743
G1 X145.021 Y168.403 E44.37842
G1 X144.524 Y167.971 E44.38942
