; generated by Slic3r 1.2.9 on 2017-09-22 at 20:21:50

; external perimeters extrusion width = 0.40mm
; perimeters extrusion width = 0.68mm
; infill extrusion width = 0.87mm
; solid infill extrusion width = 0.68mm
; top infill extrusion width = 0.68mm
; support material extrusion width = 0.40mm

M107
;<Start G-code>
M220 S100                             ; reset print speed modifier %
M190 S65   ; wait for bed temp
M106 S0                             ; fan speed
M104 S220       ; set extruder temp
G28                                   ; home all axes
                                      ; BEGIN optional (if X0 or Y0 is not on build surface)
G0 Z3                                 ; lift head
G0 X13 F3600                          ; move head to bed corner
G0 Z0 F3600                           ; lower head
G92 X Y Z E                           ; reset coordinates
G0 Z3                                 ; lift head
G0 X10 Y10 F3600                      ; move head to build surface
G0 Z0                                 ; lower head
                                      ; END optional (if X0 or Y0 is not on build surface)
M109 S220       ; wait for nozzle temp
G0 E15 F100                             ; unpark filament
G0 Z5 F3600                           ; lift head
G91                                   ; use relative coordinates
M107                                  ; disable fan
G0 X20 Y20 Z0 F3600                   ; wipe tip
;</Start G-gcode>
G21 ; set units to millimeters
G90 ; use absolute coordinates
M82 ; use absolute distances for extrusion
G92 E0
G1 E-3.00000 F9960.00000
G92 E0
G1 Z0.100 F9960.000
G1 Z0.150 F9960.000
G1 Z0.250 F9960.000
G1 X70.049 Y85.456 F9960.000
G1 Z0.150 F9960.000
G1 E3.00000 F9960.00000
G1 X70.206 Y85.299 E3.00371 F1200.000
G1 X70.206 Y76.170 E3.15618
G1 X70.165 Y76.071 E3.15796
G1 X69.340 Y75.246 E3.17744
G1 X69.271 Y75.112 E3.17996
G1 X69.211 Y75.052 E3.18139
G1 X68.978 Y74.935 E3.18574
G1 X68.313 Y72.935 E3.22094
G1 X68.526 Y72.510 E3.22888
G1 X68.534 Y72.403 E3.23066
G1 X68.313 Y71.739 E3.24235
G1 X68.500 Y71.335 E3.24979
G1 X68.500 Y69.448 E3.28130
G1 X68.534 Y69.154 E3.28624
G1 X68.610 Y68.832 E3.29177
G1 X68.711 Y68.554 E3.29671
G1 X70.093 Y65.797 E3.34822
G1 X70.757 Y65.576 E3.35990
G1 X70.838 Y65.507 E3.36168
G1 X71.294 Y64.596 E3.37870
G1 X72.386 Y64.233 E3.39791
G1 X72.921 Y63.907 E3.40837
G1 X73.602 Y63.714 E3.42020
G1 X76.077 Y63.714 E3.46153
G1 X76.459 Y63.594 E3.46822
G1 X76.730 Y63.714 E3.47317
G1 X78.339 Y63.714 E3.50004
G1 X78.508 Y63.805 E3.50324
G1 X79.547 Y64.141 E3.52148
G1 X80.768 Y65.377 E3.55050
G1 X80.896 Y65.456 E3.55302
G1 X151.804 Y65.456 E4.73727
G1 X153.294 Y66.946 E4.77247
G1 X153.294 Y123.319 E5.71397
G1 X153.346 Y123.428 E5.71599
G1 X154.126 Y124.060 E5.73275
G1 X154.582 Y124.801 E5.74728
G1 X154.661 Y125.102 E5.75247
G1 X155.000 Y125.531 E5.76161
G1 X155.000 Y132.676 E5.88095
G1 X154.966 Y132.970 E5.88589
G1 X154.890 Y133.292 E5.89141
G1 X154.789 Y133.570 E5.89636
G1 X153.701 Y135.741 E5.93692
G1 X151.700 Y136.406 E5.97212
G1 X151.429 Y136.286 E5.97706
G1 X146.606 Y136.286 E6.05763
G1 X146.118 Y136.320 E6.06579
G1 X144.499 Y135.862 E6.09389
G1 X143.640 Y135.116 E6.11290
G1 X143.586 Y134.992 E6.11515
G1 X143.521 Y134.924 E6.11671
G1 X143.232 Y134.779 E6.12212
G1 X143.187 Y134.645 E6.12447
G1 X143.047 Y134.544 E6.12736
G1 X81.296 Y134.544 E7.15869
G1 X81.167 Y134.624 E7.16123
G1 X80.739 Y135.478 E7.17719
G1 X79.467 Y135.901 E7.19957
G1 X79.149 Y136.093 E7.20577
G1 X78.468 Y136.286 E7.21759
G1 X70.736 Y136.286 E7.34674
G1 X69.580 Y135.641 E7.36884
G1 X69.032 Y134.754 E7.38625
G1 X68.978 Y134.704 E7.38748
G1 X68.942 Y134.608 E7.38919
G1 X68.797 Y134.373 E7.39381
G1 X68.789 Y134.193 E7.39682
G1 X68.634 Y134.044 E7.40041
G1 X48.196 Y134.044 E7.74175
G1 X46.706 Y132.554 E7.77695
G1 X46.706 Y120.446 E7.97916
G1 X48.196 Y118.956 E8.01436
G1 X55.304 Y118.956 E8.13307
G1 X56.794 Y120.446 E8.16827
G1 X56.794 Y123.799 E8.22427
G1 X56.951 Y123.956 E8.22797
G1 X65.349 Y123.956 E8.36823
G1 X65.506 Y123.799 E8.37193
G1 X65.506 Y95.701 E8.84121
G1 X65.349 Y95.544 E8.84491
G1 X56.951 Y95.544 E8.98517
G1 X56.794 Y95.701 E8.98887
G1 X56.794 Y99.054 E9.04487
G1 X55.304 Y100.544 E9.08007
G1 X48.196 Y100.544 E9.19878
G1 X46.706 Y99.054 E9.23398
G1 X46.706 Y86.946 E9.43619
G1 X48.196 Y85.456 E9.47139
G1 X69.989 Y85.456 E9.83536
G1 X70.317 Y85.724 F9960.000
G1 X70.474 Y85.567 E9.83907 F1200.000
G1 X70.474 Y76.059 E9.99787
G1 X70.433 Y75.960 E9.99965
G1 X69.559 Y75.087 E10.02027
G1 X69.470 Y74.912 E10.02356
G1 X69.409 Y74.851 E10.02499
G1 X69.197 Y74.745 E10.02895
G1 X68.602 Y72.956 E10.06045
G1 X68.815 Y72.531 E10.06839
G1 X68.823 Y72.424 E10.07017
G1 X68.602 Y71.760 E10.08185
G1 X68.768 Y71.398 E10.08850
G1 X68.768 Y69.464 E10.12081
G1 X68.798 Y69.201 E10.12523
G1 X68.867 Y68.909 E10.13023
G1 X68.958 Y68.660 E10.13465
G1 X70.283 Y66.016 E10.18405
G1 X70.947 Y65.796 E10.19574
G1 X71.028 Y65.726 E10.19752
G1 X71.484 Y64.815 E10.21453
G1 X72.500 Y64.478 E10.23242
G1 X73.030 Y64.155 E10.24278
G1 X73.639 Y63.982 E10.25336
G1 X76.120 Y63.982 E10.29479
G1 X76.438 Y63.883 E10.30035
G1 X76.667 Y63.982 E10.30450
G1 X78.269 Y63.982 E10.33127
G1 X78.400 Y64.052 E10.33375
G1 X79.403 Y64.376 E10.35136
G1 X80.532 Y65.505 E10.37802
G1 X80.570 Y65.579 E10.37941
G1 X80.631 Y65.639 E10.38084
G1 X80.831 Y65.724 E10.38447
G1 X151.693 Y65.724 E11.56795
G1 X153.026 Y67.057 E11.59945
G1 X153.026 Y123.447 E12.54123
G1 X153.079 Y123.556 E12.54326
G1 X153.922 Y124.239 E12.56138
G1 X154.330 Y124.902 E12.57438
G1 X154.412 Y125.219 E12.57985
G1 X154.732 Y125.624 E12.58847
G1 X154.732 Y132.661 E12.70599
G1 X154.702 Y132.923 E12.71041
G1 X154.633 Y133.215 E12.71542
G1 X154.542 Y133.464 E12.71984
G1 X153.511 Y135.522 E12.75829
G1 X151.721 Y136.117 E12.78978
G1 X151.493 Y136.018 E12.79394
G1 X146.596 Y136.018 E12.87572
G1 X146.146 Y136.049 E12.88325
G1 X144.629 Y135.621 E12.90958
G1 X143.861 Y134.953 E12.92658
G1 X143.792 Y134.796 E12.92945
G1 X143.727 Y134.728 E12.93101
G1 X143.451 Y134.590 E12.93617
G1 X143.381 Y134.378 E12.93990
G1 X143.240 Y134.276 E12.94279
G1 X81.131 Y134.276 E13.98010
G1 X81.001 Y134.356 E13.98264
G1 X80.549 Y135.259 E13.99951
G1 X79.352 Y135.657 E14.02057
G1 X79.040 Y135.845 E14.02666
G1 X78.431 Y136.018 E14.03724
G1 X70.805 Y136.018 E14.16459
G1 X69.771 Y135.441 E14.18437
G1 X69.061 Y134.292 E14.20694
G1 X69.053 Y134.096 E14.21020
G1 X68.985 Y133.878 E14.21402
G1 X68.845 Y133.776 E14.21691
G1 X48.307 Y133.776 E14.55993
G1 X46.974 Y132.443 E14.59142
G1 X46.974 Y120.557 E14.78993
G1 X48.307 Y119.224 E14.82143
G1 X55.193 Y119.224 E14.93643
G1 X56.526 Y120.557 E14.96792
G1 X56.526 Y124.067 E15.02654
G1 X56.683 Y124.224 E15.03025
G1 X65.617 Y124.224 E15.17945
G1 X65.774 Y124.067 E15.18315
G1 X65.774 Y95.433 E15.66137
G1 X65.617 Y95.276 E15.66508
G1 X56.683 Y95.276 E15.81428
G1 X56.526 Y95.433 E15.81798
G1 X56.526 Y98.943 E15.87660
G1 X55.193 Y100.276 E15.90809
G1 X48.307 Y100.276 E16.02310
G1 X46.974 Y98.943 E16.05459
G1 X46.974 Y87.057 E16.25310
G1 X48.307 Y85.724 E16.28460
G1 X70.257 Y85.724 E16.65119
G1 X70.585 Y85.991 F9960.000
G1 X70.741 Y85.835 E16.65489 F1200.000
G1 X70.741 Y75.948 E16.82001
G1 X70.701 Y75.849 E16.82179
G1 X69.779 Y74.927 E16.84357
G1 X69.668 Y74.712 E16.84762
G1 X69.608 Y74.651 E16.84904
G1 X69.416 Y74.555 E16.85262
G1 X68.891 Y72.976 E16.88041
G1 X69.104 Y72.551 E16.88835
G1 X69.112 Y72.445 E16.89013
G1 X68.891 Y71.781 E16.90182
G1 X69.035 Y71.462 E16.90767
G1 X69.035 Y69.479 E16.94078
G1 X69.062 Y69.247 E16.94468
G1 X69.124 Y68.986 E16.94916
G1 X69.204 Y68.766 E16.95306
G1 X70.473 Y66.235 E17.00035
G1 X71.137 Y66.015 E17.01203
G1 X71.217 Y65.945 E17.01381
G1 X71.674 Y65.034 E17.03083
G1 X72.614 Y64.722 E17.04738
G1 X73.139 Y64.402 E17.05764
G1 X73.677 Y64.250 E17.06698
G1 X76.164 Y64.250 E17.10851
G1 X76.417 Y64.173 E17.11294
G1 X76.560 Y64.244 E17.11560
G1 X76.660 Y64.253 E17.11728
G1 X78.200 Y64.250 E17.14300
G1 X78.293 Y64.299 E17.14476
G1 X79.260 Y64.611 E17.16172
G1 X80.313 Y65.665 E17.18661
G1 X80.372 Y65.779 E17.18876
G1 X80.433 Y65.839 E17.19019
G1 X80.768 Y65.991 E17.19634
G1 X151.582 Y65.991 E18.37903
G1 X152.759 Y67.168 E18.40682
G1 X152.759 Y123.574 E19.34888
G1 X152.811 Y123.684 E19.35091
G1 X153.718 Y124.418 E19.37040
G1 X154.078 Y125.004 E19.38187
G1 X154.164 Y125.336 E19.38761
G1 X154.465 Y125.717 E19.39571
G1 X154.465 Y127.863 E19.43156
G1 X154.446 Y128.019 E19.43418
G1 X154.465 Y128.083 E19.43529
G1 X154.465 Y130.254 E19.47155
G1 X154.446 Y130.410 E19.47417
G1 X154.465 Y130.474 E19.47528
G1 X154.465 Y132.645 E19.51154
G1 X154.437 Y132.877 E19.51544
G1 X154.376 Y133.138 E19.51993
G1 X154.296 Y133.358 E19.52383
G1 X153.321 Y135.303 E19.56016
G1 X151.742 Y135.827 E19.58795
G1 X151.600 Y135.756 E19.59061
G1 X151.500 Y135.747 E19.59229
G1 X146.587 Y135.750 E19.67434
G1 X146.174 Y135.779 E19.68126
G1 X144.760 Y135.379 E19.70580
G1 X144.082 Y134.790 E19.72080
G1 X143.998 Y134.600 E19.72428
G1 X143.933 Y134.532 E19.72584
G1 X143.670 Y134.400 E19.73075
G1 X143.574 Y134.110 E19.73586
G1 X143.434 Y134.009 E19.73875
G1 X80.965 Y134.009 E20.78205
G1 X80.836 Y134.088 E20.78459
G1 X80.359 Y135.040 E20.80237
G1 X79.238 Y135.412 E20.82209
G1 X78.931 Y135.598 E20.82808
G1 X78.393 Y135.750 E20.83742
G1 X70.875 Y135.750 E20.96299
G1 X69.963 Y135.241 E20.98044
G1 X69.326 Y134.210 E21.00068
G1 X69.312 Y134.011 E21.00402
G1 X69.179 Y133.610 E21.01108
G1 X69.038 Y133.509 E21.01397
G1 X48.418 Y133.509 E21.35835
G1 X47.241 Y132.332 E21.38614
G1 X47.241 Y120.668 E21.58095
G1 X48.418 Y119.491 E21.60874
G1 X55.082 Y119.491 E21.72003
G1 X56.259 Y120.668 E21.74782
G1 X56.259 Y124.335 E21.80906
G1 X56.415 Y124.491 E21.81277
G1 X65.885 Y124.491 E21.97091
G1 X66.041 Y124.335 E21.97462
G1 X66.041 Y95.165 E22.46178
G1 X65.885 Y95.009 E22.46549
G1 X56.415 Y95.009 E22.62363
G1 X56.259 Y95.165 E22.62734
G1 X56.259 Y98.832 E22.68857
G1 X55.082 Y100.009 E22.71636
G1 X48.418 Y100.009 E22.82766
G1 X47.241 Y98.832 E22.85545
G1 X47.241 Y87.168 E23.05026
G1 X48.418 Y85.991 E23.07805
G1 X70.525 Y85.991 E23.44726
G1 X70.852 Y86.259 F9960.000
G1 X71.009 Y86.102 E23.45096 F1200.000
G1 X71.009 Y75.837 E23.62241
G1 X70.968 Y75.738 E23.62419
G1 X69.998 Y74.768 E23.64711
G1 X69.867 Y74.511 E23.65192
G1 X69.806 Y74.451 E23.65335
G1 X69.635 Y74.366 E23.65654
G1 X69.181 Y72.997 E23.68062
G1 X69.394 Y72.572 E23.68856
G1 X69.401 Y72.466 E23.69034
G1 X69.181 Y71.802 E23.70203
G1 X69.303 Y71.525 E23.70709
G1 X69.303 Y69.495 E23.74099
G1 X69.327 Y69.294 E23.74437
G1 X69.381 Y69.063 E23.74834
G1 X69.450 Y68.873 E23.75172
G1 X70.662 Y66.455 E23.79689
G1 X71.326 Y66.234 E23.80858
G1 X71.407 Y66.164 E23.81036
G1 X71.863 Y65.254 E23.82737
G1 X72.728 Y64.966 E23.84259
G1 X73.248 Y64.650 E23.85275
G1 X73.714 Y64.517 E23.86084
G1 X76.207 Y64.517 E23.90248
G1 X76.397 Y64.462 E23.90578
G1 X76.533 Y64.530 E23.90832
G1 X76.633 Y64.539 E23.91000
G1 X76.710 Y64.517 E23.91134
G1 X78.130 Y64.517 E23.93506
G1 X78.229 Y64.572 E23.93694
G1 X79.116 Y64.846 E23.95245
G1 X80.094 Y65.824 E23.97555
G1 X80.173 Y65.979 E23.97847
G1 X80.234 Y66.040 E23.97989
G1 X80.515 Y66.180 E23.98513
G1 X80.624 Y66.259 E23.98739
G1 X151.471 Y66.259 E25.17063
G1 X152.491 Y67.279 E25.19471
G1 X152.491 Y123.702 E26.13706
G1 X152.543 Y123.812 E26.13908
G1 X153.514 Y124.598 E26.15995
G1 X153.825 Y125.105 E26.16989
G1 X153.915 Y125.454 E26.17590
G1 X154.197 Y125.810 E26.18349
G1 X154.197 Y127.848 E26.21752
G1 X154.168 Y128.098 E26.22173
G1 X154.197 Y128.201 E26.22351
G1 X154.197 Y130.239 E26.25755
G1 X154.168 Y130.489 E26.26176
G1 X154.197 Y130.591 E26.26354
G1 X154.197 Y132.629 E26.29758
G1 X154.173 Y132.830 E26.30096
G1 X154.119 Y133.062 E26.30492
G1 X154.050 Y133.252 E26.30830
G1 X153.131 Y135.084 E26.34252
G1 X151.763 Y135.538 E26.36661
G1 X151.627 Y135.470 E26.36915
G1 X151.527 Y135.461 E26.37083
G1 X151.450 Y135.483 E26.37217
G1 X146.578 Y135.483 E26.45354
G1 X146.202 Y135.509 E26.45983
G1 X144.890 Y135.138 E26.48259
G1 X144.303 Y134.627 E26.49559
G1 X144.204 Y134.403 E26.49968
G1 X144.140 Y134.336 E26.50124
G1 X143.889 Y134.210 E26.50591
G1 X143.767 Y133.842 E26.51239
G1 X143.627 Y133.741 E26.51528
G1 X80.800 Y133.741 E27.56457
G1 X80.671 Y133.821 E27.56711
G1 X80.169 Y134.821 E27.58580
G1 X79.124 Y135.168 E27.60419
G1 X78.822 Y135.350 E27.61008
G1 X78.356 Y135.483 E27.61818
G1 X70.945 Y135.483 E27.74196
G1 X70.154 Y135.041 E27.75708
G1 X69.590 Y134.129 E27.77500
G1 X69.578 Y133.962 E27.77780
G1 X69.372 Y133.342 E27.78870
G1 X69.232 Y133.241 E27.79159
G1 X48.529 Y133.241 E28.13735
G1 X47.509 Y132.221 E28.16144
G1 X47.509 Y120.779 E28.35254
G1 X48.529 Y119.759 E28.37662
G1 X54.971 Y119.759 E28.48421
G1 X55.991 Y120.779 E28.50830
G1 X55.991 Y124.602 E28.57215
G1 X56.148 Y124.759 E28.57586
G1 X66.152 Y124.759 E28.74295
G1 X66.309 Y124.602 E28.74666
G1 X66.309 Y94.898 E29.24276
G1 X66.152 Y94.741 E29.24647
G1 X56.148 Y94.741 E29.41356
G1 X55.991 Y94.898 E29.41727
G1 X55.991 Y98.721 E29.48112
G1 X54.971 Y99.741 E29.50521
G1 X48.529 Y99.741 E29.61280
G1 X47.509 Y98.721 E29.63689
G1 X47.509 Y87.279 E29.82798
G1 X48.529 Y86.259 E29.85207
G1 X70.792 Y86.259 E30.22390
G1 X71.120 Y86.527 F9960.000
G1 X71.277 Y86.370 E30.22760 F1200.000
G1 X71.277 Y75.669 E30.40632
G1 X71.174 Y75.529 E30.40923
G1 X71.120 Y75.511 E30.41019
G1 X70.217 Y74.608 E30.43151
G1 X70.065 Y74.311 E30.43708
G1 X70.005 Y74.251 E30.43851
G1 X69.854 Y74.176 E30.44131
G1 X69.470 Y73.018 E30.46169
G1 X69.683 Y72.593 E30.46963
G1 X69.690 Y72.487 E30.47141
G1 X69.470 Y71.823 E30.48310
G1 X69.585 Y71.593 E30.48740
G1 X69.571 Y71.456 E30.48968
G1 X69.571 Y69.510 E30.52218
G1 X69.591 Y69.340 E30.52504
G1 X69.697 Y68.979 E30.53134
G1 X70.852 Y66.674 E30.57439
G1 X71.516 Y66.453 E30.58608
G1 X71.597 Y66.383 E30.58786
G1 X72.053 Y65.473 E30.60487
G1 X72.873 Y65.200 E30.61930
G1 X73.357 Y64.897 E30.62884
G1 X73.751 Y64.785 E30.63569
G1 X76.250 Y64.785 E30.67742
G1 X76.376 Y64.751 E30.67960
G1 X76.506 Y64.816 E30.68202
G1 X76.606 Y64.825 E30.68370
G1 X76.747 Y64.785 E30.68615
G1 X78.060 Y64.785 E30.70809
G1 X78.179 Y64.852 E30.71037
G1 X78.297 Y64.863 E30.71233
G1 X78.972 Y65.081 E30.72419
G1 X79.875 Y65.984 E30.74551
G1 X79.975 Y66.179 E30.74918
G1 X80.036 Y66.240 E30.75061
G1 X80.267 Y66.356 E30.75494
G1 X80.291 Y66.426 E30.75617
G1 X80.431 Y66.527 E30.75906
G1 X151.360 Y66.527 E31.94367
G1 X152.223 Y67.390 E31.96405
G1 X152.223 Y123.830 E32.90668
G1 X152.275 Y123.939 E32.90870
G1 X153.310 Y124.777 E32.93093
G1 X153.573 Y125.206 E32.93934
G1 X153.666 Y125.571 E32.94564
G1 X153.929 Y125.903 E32.95270
G1 X153.929 Y127.832 E32.98493
G1 X153.876 Y128.141 E32.99016
G1 X153.903 Y128.261 E32.99221
G1 X153.929 Y128.294 E32.99291
G1 X153.929 Y130.223 E33.02513
G1 X153.876 Y130.532 E33.03036
G1 X153.903 Y130.652 E33.03241
G1 X153.929 Y130.685 E33.03311
G1 X153.929 Y132.614 E33.06533
G1 X153.909 Y132.784 E33.06819
G1 X153.803 Y133.146 E33.07449
G1 X152.942 Y134.864 E33.10660
G1 X151.784 Y135.249 E33.12698
G1 X151.654 Y135.184 E33.12940
G1 X151.554 Y135.175 E33.13108
G1 X151.413 Y135.215 E33.13353
G1 X146.568 Y135.215 E33.21444
G1 X146.230 Y135.238 E33.22011
G1 X145.021 Y134.896 E33.24109
G1 X144.524 Y134.464 E33.25209
G1 X144.410 Y134.207 E33.25679
G1 X144.346 Y134.139 E33.25835
G1 X144.109 Y134.021 E33.26278
G1 X143.960 Y133.574 E33.27063
G1 X143.820 Y133.473 E33.27352
G1 X80.635 Y133.473 E34.32880
G1 X80.505 Y133.553 E34.33134
G1 X79.980 Y134.602 E34.35093
G1 X79.010 Y134.924 E34.36800
G1 X78.713 Y135.103 E34.37379
G1 X78.319 Y135.215 E34.38063
G1 X71.014 Y135.215 E34.50263
G1 X70.345 Y134.842 E34.51543
G1 X69.855 Y134.047 E34.53102
G1 X69.844 Y133.913 E34.53328
G1 X69.565 Y133.074 E34.54803
G1 X69.425 Y132.973 E34.55092
G1 X48.640 Y132.973 E34.89806
G1 X47.777 Y132.110 E34.91844
G1 X47.777 Y120.890 E35.10583
G1 X48.640 Y120.027 E35.12621
G1 X54.860 Y120.027 E35.23009
G1 X55.723 Y120.890 E35.25047
G1 X55.723 Y124.870 E35.31695
G1 X55.880 Y125.027 E35.32066
G1 X66.420 Y125.027 E35.49669
G1 X66.577 Y124.870 E35.50040
G1 X66.577 Y94.630 E36.00545
G1 X66.420 Y94.473 E36.00916
