; generated by Slic3r 1.2.9 on 2017-09-08 at 21:23:29

; external perimeters extrusion width = 0.40mm
; perimeters extrusion width = 0.68mm
; infill extrusion width = 0.87mm
; solid infill extrusion width = 0.68mm
; top infill extrusion width = 0.68mm
; support material extrusion width = 0.40mm

M107
;<Start G-code>
M220 S100                             ; reset print speed modifier %
M190 S65   ; wait for bed temp
M106 S0                             ; fan speed
M104 S220       ; set extruder temp
G28                                   ; home all axes
                                      ; BEGIN optional (if X0 or Y0 is not on build surface)
G0 Z3                                 ; lift head
G0 X13 F3600                          ; move head to bed corner
G0 Z0 F3600                           ; lower head
G92 X Y Z E                           ; reset coordinates
G0 Z3                                 ; lift head
G0 X10 Y10 F3600                      ; move head to build surface
G0 Z0                                 ; lower head
                                      ; END optional (if X0 or Y0 is not on build surface)
M109 S220       ; wait for nozzle temp
G0 E15 F100                             ; unpark filament
G0 Z5 F3600                           ; lift head
G91                                   ; use relative coordinates
M107                                  ; disable fan
G0 X20 Y20 Z0 F3600                   ; wipe tip
;</Start G-gcode>
G21 ; set units to millimeters
G90 ; use absolute coordinates
M82 ; use absolute distances for extrusion
G92 E0
G1 E-3.00000 F9960.00000
G92 E0
G1 Z0.100 F9960.000
G1 Z0.150 F9960.000
G1 Z0.250 F9960.000
G1 X56.446 Y59.956 F9960.000
G1 Z0.150 F9960.000
G1 E3.00000 F9960.00000
G1 X143.554 Y59.956 E4.45482 F1200.000
G1 X145.044 Y61.446 E4.49002
G1 X145.044 Y138.554 E5.77782 F1200.000
G1 X143.554 Y140.044 E5.81302
G1 X56.446 Y140.044 E7.26784
G1 X54.956 Y138.554 E7.30304
G1 X54.956 Y61.446 E8.59084
G1 X56.404 Y59.998 E8.62504
G1 X56.557 Y60.224 F9960.000
G1 X143.443 Y60.224 E10.07615 F1200.000
G1 X144.776 Y61.557 E10.10764 F1200.000
G1 X144.776 Y138.443 E11.39174
G1 X143.443 Y139.776 E11.42324
G1 X56.557 Y139.776 E12.87435
G1 X55.224 Y138.443 E12.90584
G1 X55.224 Y61.557 E14.18994
G1 X56.515 Y60.266 E14.22043
G1 X56.668 Y60.491 F9960.000
G1 X143.332 Y60.491 E15.66784 F1200.000
G1 X144.509 Y61.668 E15.69563
G1 X144.509 Y138.332 E16.97602 F1200.000
G1 X143.332 Y139.509 E17.00381
G1 X56.668 Y139.509 E18.45122
G1 X55.491 Y138.332 E18.47901
G1 X55.491 Y61.668 E19.75940
G1 X56.626 Y60.534 E19.78619
G1 X56.779 Y60.759 F9960.000
G1 X143.221 Y60.759 E21.22989 F1200.000
G1 X144.241 Y61.779 E21.25397 F1200.000
G1 X144.241 Y138.221 E22.53066
G1 X143.221 Y139.241 E22.55474
G1 X56.779 Y139.241 E23.99844
G1 X55.759 Y138.221 E24.02253
G1 X55.759 Y61.779 E25.29921
G1 X56.737 Y60.802 E25.32230
G1 X56.890 Y61.027 F9960.000
G1 X143.110 Y61.027 E26.76229 F1200.000
G1 X143.973 Y61.890 E26.78267
G1 X143.973 Y138.110 E28.05565 F1200.000
G1 X143.110 Y138.973 E28.07603
G1 X56.890 Y138.973 E29.51603
G1 X56.027 Y138.110 E29.53640
G1 X56.027 Y61.890 E30.80939
G1 X56.847 Y61.069 E30.82876
G1 X57.001 Y61.295 F9960.000
G1 X142.999 Y61.295 E32.26505 F1200.000
G1 X143.705 Y62.001 E32.28173 F1200.000
G1 X143.705 Y137.999 E33.55100
G1 X142.999 Y138.705 E33.56768
G1 X57.001 Y138.705 E35.00397
G1 X56.295 Y137.999 E35.02064
G1 X56.295 Y62.001 E36.28992
G1 X56.958 Y61.337 E36.30559
G1 X57.112 Y61.563 F9960.000
G1 X142.888 Y61.563 E37.73817 F1200.000
G1 X143.437 Y62.112 E37.75114
G1 X143.437 Y137.888 E39.01671 F1200.000
G1 X142.888 Y138.437 E39.02968
G1 X57.112 Y138.437 E40.46226
G1 X56.563 Y137.888 E40.47523
G1 X56.563 Y62.112 E41.74080
G1 X57.069 Y61.605 E41.75277
G1 X57.223 Y61.830 F9960.000
G1 X142.777 Y61.830 E43.18165 F1200.000
G1 X143.170 Y62.223 E43.19091 F1200.000
G1 X143.170 Y137.777 E44.45277
G1 X142.777 Y138.170 E44.46204
G1 X57.223 Y138.170 E45.89092
G1 X56.830 Y137.777 E45.90018
G1 X56.830 Y62.223 E47.16204
G1 X57.180 Y61.873 E47.17031
G1 X57.334 Y62.098 F9960.000
G1 X142.666 Y62.098 E48.59548 F1200.000
G1 X142.902 Y62.334 E48.60104
G1 X142.902 Y137.666 E49.85920 F1200.000
G1 X142.666 Y137.902 E49.86475
G1 X57.334 Y137.902 E51.28993
G1 X57.098 Y137.666 E51.29549
G1 X57.098 Y62.334 E52.55365
G1 X57.291 Y62.141 E52.55820
G1 X57.445 Y62.366 F9960.000
G1 X142.555 Y62.366 E53.97967 F1200.000
G1 X142.634 Y62.445 E53.98152
G1 X142.634 Y137.555 E55.23598
G1 X142.555 Y137.634 E55.23783
G1 X57.445 Y137.634 E56.65930
G1 X57.366 Y137.555 E56.66115
G1 X57.366 Y62.445 E57.91560
G1 X57.402 Y62.409 E57.91645
G1 F7968
G1 X59.802 Y62.407 E55.06645
G1 E54.91645 F9960.00000
G92 E0
G1 Z0.250 F9960.000
G1 X142.350 Y137.350 F9960.000
G1 Z0.150 F9960.000
G1 E3.00000 F9960.00000
G1 X57.650 Y137.350 E4.41460 F1200.000
G1 X57.650 Y62.650 E5.66220
G1 X142.350 Y62.650 E7.07680
G1 X142.350 Y137.290 E8.32339
G1 X142.004 Y137.150 F9960.000
G1 X142.082 Y137.082 F9960.000
G1 X57.918 Y137.082 E9.72905 F1200.000
G1 X57.918 Y62.918 E10.96769
G1 X142.082 Y62.918 E12.37335
G1 X142.082 Y137.022 E13.61100
G1 X140.954 Y136.066 F9960.000
G1 X140.570 Y136.353 E13.61900 F1200.000
G1 X140.161 Y136.535 E13.62647
G1 X139.728 Y136.627 E13.63388
G1 X139.496 Y136.640 E13.63775
G1 X139.055 Y136.593 E13.64515
G1 X138.630 Y136.455 E13.65262
G1 X138.242 Y136.231 E13.66010
G1 X137.910 Y135.932 E13.66757
G1 X137.647 Y135.570 E13.67504
G1 X137.465 Y135.161 E13.68251
G1 X137.373 Y134.728 E13.68992
G1 X137.361 Y134.500 E13.69372
G1 X137.373 Y134.272 E13.69753
G1 X137.465 Y133.839 E13.70493
G1 X137.647 Y133.430 E13.71241
G1 X137.910 Y133.068 E13.71988
G1 X138.242 Y132.769 E13.72735
G1 X138.630 Y132.545 E13.73482
G1 X139.055 Y132.407 E13.74229
G1 X139.488 Y132.361 E13.74956 F1200.000
G1 X139.727 Y132.373 E13.75356
G1 X140.161 Y132.465 E13.76097
G1 X140.570 Y132.647 E13.76845
G1 X140.932 Y132.910 E13.77592
G1 X141.231 Y133.242 E13.78339
G1 X141.455 Y133.630 E13.79086
G1 X141.593 Y134.055 E13.79833
G1 X141.640 Y134.500 E13.80580
G1 X141.593 Y134.945 E13.81328
G1 X141.455 Y135.370 E13.82075
G1 X141.231 Y135.758 E13.82822
G1 X140.994 Y136.022 E13.83414
G1 X141.027 Y136.459 F9960.000
G1 X141.153 Y136.245 F9960.000
G1 X140.705 Y136.586 E13.84355 F1200.000
G1 X140.245 Y136.791 E13.85196
G1 X139.763 Y136.894 E13.86019
G1 X139.489 Y136.908 E13.86477
G1 X138.999 Y136.857 E13.87299
G1 X138.520 Y136.701 E13.88140
G1 X138.084 Y136.449 E13.88982
G1 X137.710 Y136.112 E13.89823
G1 X137.414 Y135.705 E13.90664
G1 X137.209 Y135.245 E13.91505
G1 X137.106 Y134.763 E13.92328
G1 X137.093 Y134.500 E13.92767
G1 X137.106 Y134.237 E13.93206
G1 X137.209 Y133.755 E13.94029
G1 X137.414 Y133.295 E13.94870
G1 X137.710 Y132.888 E13.95712
G1 X138.084 Y132.551 E13.96553
G1 X138.520 Y132.299 E13.97394
G1 X138.999 Y132.144 E13.98235
G1 X139.480 Y132.092 E13.99043 F1200.000
G1 X139.762 Y132.106 E13.99514
G1 X140.245 Y132.209 E14.00338
G1 X140.705 Y132.414 E14.01179
G1 X141.112 Y132.710 E14.02020
G1 X141.449 Y133.084 E14.02862
G1 X141.701 Y133.520 E14.03703
G1 X141.857 Y133.999 E14.04544
G1 X141.909 Y134.500 E14.05385
G1 X141.857 Y135.001 E14.06226
G1 X141.701 Y135.480 E14.07067
G1 X141.449 Y135.916 E14.07909
G1 X141.193 Y136.201 E14.08548
G1 F7968
G1 X140.705 Y136.586 E13.34666
G1 F7968
G1 X140.245 Y136.791 E12.74859
G1 F7968
G1 X139.763 Y136.894 E12.16354
G1 F7968
G1 X139.489 Y136.908 E11.83818
G1 F7968
G1 X138.999 Y136.857 E11.25312
G1 F7968
G1 X138.985 Y136.852 E11.23548
G1 E11.08548 F9960.00000
G92 E0
G1 Z0.250 F9960.000
G1 X139.500 Y67.640 F9960.000
G1 Z0.150 F9960.000
G1 E3.00000 F9960.00000
G1 X139.059 Y67.594 E3.00741 F1200.000
G1 X138.835 Y67.534 E3.01128
G1 X138.430 Y67.353 E3.01868
G1 X138.068 Y67.090 E3.02615
G1 X137.769 Y66.758 E3.03363
G1 X137.545 Y66.370 E3.04110
G1 X137.407 Y65.945 E3.04857
G1 X137.360 Y65.500 E3.05604
G1 X137.407 Y65.055 E3.06351
G1 X137.544 Y64.633 E3.07092
G1 X137.649 Y64.427 E3.07479
G1 X137.910 Y64.068 E3.08219
G1 X138.242 Y63.769 E3.08967
G1 X138.630 Y63.545 E3.09714
G1 X139.055 Y63.407 E3.10461
G1 X139.488 Y63.361 E3.11188 F1200.000
G1 X139.727 Y63.373 E3.11588
G1 X140.161 Y63.465 E3.12329
G1 X140.570 Y63.647 E3.13076
G1 X140.932 Y63.910 E3.13824
G1 X141.231 Y64.242 E3.14571
G1 X141.455 Y64.630 E3.15318
G1 X141.593 Y65.055 E3.16065
G1 X141.640 Y65.500 E3.16812
G1 X141.593 Y65.945 E3.17559
G1 X141.455 Y66.370 E3.18306
G1 X141.231 Y66.758 E3.19054
G1 X140.932 Y67.090 E3.19801
G1 X140.570 Y67.353 E3.20548
G1 X140.165 Y67.534 E3.21288
G1 X139.941 Y67.594 E3.21676
G1 X139.560 Y67.634 E3.22316
G1 X139.288 Y67.979 F9960.000
G1 X139.528 Y67.906 F9960.000
G1 X139.010 Y67.858 E3.23185 F1200.000
G1 X138.745 Y67.787 E3.23642
G1 X138.295 Y67.586 E3.24465
G1 X137.888 Y67.290 E3.25306
G1 X137.551 Y66.916 E3.26148
G1 X137.299 Y66.480 E3.26989
G1 X137.143 Y66.001 E3.27830
G1 X137.091 Y65.500 E3.28671
G1 X137.143 Y64.999 E3.29512
G1 X137.296 Y64.531 E3.30335
G1 X137.420 Y64.286 E3.30792
G1 X137.710 Y63.888 E3.31615
G1 X138.084 Y63.551 E3.32456
G1 X138.520 Y63.299 E3.33298
G1 X138.999 Y63.144 E3.34138
G1 X139.480 Y63.092 E3.34947 F1200.000
G1 X139.762 Y63.106 E3.35418
G1 X140.245 Y63.209 E3.36242
G1 X140.705 Y63.414 E3.37083
G1 X141.112 Y63.710 E3.37924
G1 X141.449 Y64.084 E3.38765
G1 X141.701 Y64.520 E3.39607
G1 X141.857 Y64.999 E3.40448
G1 X141.909 Y65.500 E3.41289
G1 X141.857 Y66.001 E3.42130
G1 X141.701 Y66.480 E3.42971
G1 X141.449 Y66.916 E3.43812
G1 X141.112 Y67.290 E3.44654
G1 X140.705 Y67.586 E3.45495
G1 X140.255 Y67.787 E3.46318
G1 X139.990 Y67.858 E3.46775
G1 X139.588 Y67.900 E3.47451
G1 X62.640 Y65.500 F9960.000
G1 X62.593 Y65.945 E3.48198 F1200.000
G1 X62.455 Y66.370 E3.48945
G1 X62.231 Y66.758 E3.49692
G1 X61.932 Y67.090 E3.50439
G1 X61.570 Y67.353 E3.51186
G1 X61.173 Y67.531 E3.51913
G1 X60.941 Y67.594 E3.52314
G1 X60.500 Y67.640 E3.53055
G1 X60.055 Y67.593 E3.53802
G1 X59.630 Y67.455 E3.54549
G1 X59.242 Y67.231 E3.55296
G1 X58.910 Y66.932 E3.56043
G1 X58.647 Y66.570 E3.56791
G1 X58.466 Y66.165 E3.57532
G1 X58.405 Y65.933 E3.57932
G1 X58.360 Y65.500 E3.58659
G1 X58.406 Y65.059 E3.59400
G1 X58.469 Y64.827 E3.59800
G1 X58.647 Y64.430 E3.60527
G1 X58.910 Y64.068 E3.61274
G1 X59.242 Y63.769 E3.62021
G1 X59.630 Y63.545 E3.62768
G1 X60.055 Y63.407 E3.63515
G1 X60.488 Y63.361 E3.64243 F1200.000
G1 X60.727 Y63.373 E3.64643
G1 X61.161 Y63.465 E3.65384
G1 X61.570 Y63.647 E3.66131
G1 X61.932 Y63.910 E3.66878
G1 X62.231 Y64.242 E3.67625
G1 X62.455 Y64.630 E3.68372
G1 X62.593 Y65.055 E3.69120
G1 X62.634 Y65.440 E3.69767
G1 X62.979 Y65.712 F9960.000
G1 X62.906 Y65.472 F9960.000
G1 X62.857 Y66.001 E3.70654 F1200.000
G1 X62.701 Y66.480 E3.71495
G1 X62.449 Y66.916 E3.72336
G1 X62.112 Y67.290 E3.73177
G1 X61.705 Y67.586 E3.74018
G1 X61.263 Y67.784 E3.74827
G1 X60.991 Y67.858 E3.75297
G1 X60.500 Y67.909 E3.76122
G1 X59.999 Y67.857 E3.76963
G1 X59.520 Y67.701 E3.77804
G1 X59.084 Y67.449 E3.78645
G1 X58.710 Y67.112 E3.79486
G1 X58.414 Y66.705 E3.80327
G1 X58.213 Y66.254 E3.81152
G1 X58.141 Y65.981 E3.81622
G1 X58.091 Y65.500 E3.82431
G1 X58.142 Y65.009 E3.83255
G1 X58.216 Y64.737 E3.83725
G1 X58.414 Y64.295 E3.84534
G1 X58.710 Y63.888 E3.85375
G1 X59.084 Y63.551 E3.86216
G1 X59.520 Y63.299 E3.87057
G1 X59.999 Y63.144 E3.87898
G1 X60.480 Y63.092 E3.88706 F1200.000
G1 X60.762 Y63.106 E3.89177
G1 X61.244 Y63.209 E3.90001
G1 X61.705 Y63.414 E3.90842
G1 X62.112 Y63.710 E3.91684
G1 X62.449 Y64.084 E3.92525
G1 X62.701 Y64.520 E3.93366
G1 X62.857 Y64.999 E3.94207
G1 X62.900 Y65.412 E3.94901
G1 X60.488 Y132.361 F9960.000
G1 X60.727 Y132.373 E3.95301 F1200.000
G1 X61.161 Y132.465 E3.96043
G1 X61.570 Y132.647 E3.96790
G1 X61.932 Y132.910 E3.97537
G1 X62.231 Y133.242 E3.98284
G1 X62.455 Y133.630 E3.99031
G1 X62.593 Y134.055 E3.99778
G1 X62.640 Y134.500 E4.00525
G1 X62.594 Y134.941 E4.01266
G1 X62.534 Y135.165 E4.01653
G1 X62.353 Y135.570 E4.02394
G1 X62.090 Y135.932 E4.03141
G1 X61.758 Y136.231 E4.03888
G1 X61.370 Y136.455 E4.04635
G1 X60.945 Y136.593 E4.05382
G1 X60.500 Y136.640 E4.06130
G1 X60.055 Y136.593 E4.06877
G1 X59.630 Y136.455 E4.07624
G1 X59.242 Y136.231 E4.08371
G1 X58.910 Y135.932 E4.09118
G1 X58.647 Y135.570 E4.09865
G1 X58.466 Y135.165 E4.10606
G1 X58.405 Y134.933 E4.11007
G1 X58.360 Y134.500 E4.11734
G1 X58.406 Y134.059 E4.12475
G1 X58.469 Y133.827 E4.12875
G1 X58.647 Y133.430 E4.13602
G1 X58.910 Y133.068 E4.14349
G1 X59.242 Y132.769 E4.15096
G1 X59.630 Y132.545 E4.15843
G1 X60.055 Y132.407 E4.16590
G1 X60.428 Y132.367 E4.17217 F1200.000
G1 X60.607 Y132.153 F9960.000
G1 X60.501 Y132.093 F9960.000
G1 X60.762 Y132.106 E4.17653 F1200.000
G1 X61.244 Y132.209 E4.18478
G1 X61.705 Y132.414 E4.19319
G1 X62.112 Y132.710 E4.20160
G1 X62.449 Y133.084 E4.21001
G1 X62.701 Y133.520 E4.21842
G1 X62.857 Y133.999 E4.22683
G1 X62.909 Y134.500 E4.23525
G1 X62.858 Y134.990 E4.24347
G1 X62.787 Y135.255 E4.24805
G1 X62.586 Y135.705 E4.25628
G1 X62.290 Y136.112 E4.26469
G1 X61.916 Y136.449 E4.27310
G1 X61.480 Y136.701 E4.28151
G1 X61.001 Y136.857 E4.28992
G1 X60.500 Y136.909 E4.29834
G1 X59.999 Y136.857 E4.30675
G1 X59.520 Y136.701 E4.31516
G1 X59.084 Y136.449 E4.32357
G1 X58.710 Y136.112 E4.33198
G1 X58.414 Y135.705 E4.34039
G1 X58.213 Y135.254 E4.34864
G1 X58.141 Y134.981 E4.35334
G1 X58.091 Y134.500 E4.36143
G1 X58.142 Y134.009 E4.36967
G1 X58.216 Y133.737 E4.37438
G1 X58.414 Y133.295 E4.38246
G1 X58.710 Y132.888 E4.39087
G1 X59.084 Y132.551 E4.39928
G1 X59.520 Y132.299 E4.40769
G1 X59.999 Y132.144 E4.41610
G1 X60.441 Y132.097 E4.42353 F1200.000
G1 X58.194 Y133.108 F9960.000
G1 X58.060 Y133.774 E4.43487 F1200.000
G1 X58.060 Y135.228 F9960.000
G1 X58.194 Y135.892 E4.44618 F1200.000
G1 X58.552 Y136.227 F9960.000
G1 X58.331 Y136.006 E4.45330 F1200.000
G1 X58.069 Y136.261 E4.46164
G1 X58.739 Y136.931 E4.48326
G1 X58.981 Y136.656 E4.49162
G1 X58.721 Y136.396 E4.49999
G1 X58.222 Y136.931 F9960.000
G1 X58.069 Y136.778 E4.50494 F1200.000
G1 X59.088 Y136.789 F9960.000
G1 X59.446 Y136.885 E4.51112 F1200.000
G1 X59.800 Y136.941 E4.51711
G1 X61.200 Y136.941 F9960.000
G1 X61.554 Y136.885 E4.52311 F1200.000
G1 X61.912 Y136.789 E4.52929
G1 F7968
G1 X61.554 Y136.885 E4.09002
G1 F7968
G1 X61.200 Y136.941 E3.66368
G1 E1.52929 F9960.00000
G92 E0
G1 Z0.250 F9960.000
G1 X58.194 Y66.892 F9960.000
G1 Z0.150 F9960.000
G1 E3.00000 F9960.00000
G1 X58.060 Y66.228 E3.01130 F1200.000
G1 X58.060 Y64.774 F9960.000
G1 X58.194 Y64.108 E3.02265 F1200.000
G1 X58.228 Y63.948 F9960.000
G1 X58.069 Y63.788 E3.02732 F1200.000
G1 X58.069 Y63.319 E3.03705
G1 X58.588 Y63.838 E3.05226
G1 X58.829 Y63.609 E3.05914
G1 X58.288 Y63.069 E3.07498
G1 X58.758 Y63.069 E3.08471
G1 X58.920 Y63.231 E3.08945
G1 X59.088 Y63.211 F9960.000
G1 X59.446 Y63.115 E3.09563 F1200.000
G1 X59.800 Y63.059 E3.10162
G1 X61.227 Y63.060 F9960.000
G1 X61.892 Y63.194 E3.11296 F1200.000
G1 X62.036 Y63.189 F9960.000
G1 X135.779 Y136.931 E4.85687 F1200.000
G1 X136.158 Y136.931 E4.86321
G1 X62.295 Y63.069 E6.60997
G1 X62.674 Y63.069 E6.61631
G1 X136.537 Y136.931 E8.36307
G1 X136.916 Y136.931 E8.36941
G1 X63.053 Y63.069 E10.11617
G1 X63.433 Y63.069 E10.12251
G1 X137.295 Y136.931 E11.86927
G1 X137.227 Y135.725 F9960.000
G1 X64.570 Y63.069 E13.58752 F1200.000
G1 X64.949 Y63.069 E13.59386
G1 X137.018 Y135.138 E15.29820
G1 X136.948 Y134.688 E15.30580
G1 X65.329 Y63.069 E16.99952
G1 X65.708 Y63.069 E17.00586
G1 X136.954 Y134.315 E18.69074
G1 X137.014 Y133.996 E18.69617
G1 X66.087 Y63.069 E20.37351
G1 X66.466 Y63.069 E20.37985
G1 X137.091 Y133.693 E22.05004
G1 X137.208 Y133.431 E22.05484
G1 X66.846 Y63.069 E23.71882
G1 X67.225 Y63.069 E23.72516
G1 X137.338 Y133.182 E25.38324
G1 X137.497 Y132.962 E25.38778
G1 X67.604 Y63.069 E27.04067
G1 X67.983 Y63.069 E27.04701
G1 X137.668 Y132.754 E28.69498
G1 X137.868 Y132.574 E28.69947
G1 X68.362 Y63.069 E30.34318
G1 X68.742 Y63.069 E30.34952
G1 X138.077 Y132.404 E31.98923
G1 X138.318 Y132.266 E31.99387
G1 X69.121 Y63.069 E33.63029
G1 X69.500 Y63.069 E33.63663
G1 X138.571 Y132.140 E35.27007
G1 X138.857 Y132.047 E35.27511
G1 X69.879 Y63.069 E36.90635
G1 X70.258 Y63.069 E36.91269
G1 X139.169 Y131.979 E38.54234
